X: 1
T: The Wild Rover    [G]
O: Ireland
R: waltz
Z: 2018 John Chambers <jc:trillian.mit.edu>
S: Printed page of unknown origin, via the Merry Minstrels (Lexington MA USA)
M: 3/4
L: 1/4
K: G
%%continueall 0
% - - - - - - - - - - - - - - - - - - - - - - - - -
D |\
"G"G> A G | E D B | B< A B | "C"c3- |\
c3 B/c/ | "G"d B d | "D7"c A F | D B> A |\
[1 "G"G3- | G2 :|[2 "G *"G3- | G F G |
"D" A3 | A3 "D7"F D2- | D3- |\
"G"D BB | B< A B | "C"c3- | c B c |\
"G"d3- | d B G | "C"F E2- | E2 E |\
"G"D B2- | "D7"B2 A | "G"G3 | z2 |]
%%text * This measure is often omitted.
% - - - - - - - - - - - - - - - - - - - - - - - - -
